media/service-02.svg

<svg width="100" height="100" viewBox="0 0 100 100" fill="none" xmlns="http://www.w3.org/2000/svg">
<circle cx="50" cy="50" r="50" fill="#0F75BC" fill-opacity="0.12"/>
<g clip-path="url(#clip0)">
<path d="M72.4594 67.8068C72.3768 67.6826 72.2633 67.582 72.13 67.5151L70.3345 66.6178C70.2978 66.4833 70.2278 66.3599 70.1312 66.2593L55.065 51.1931L57.2551 49.0056C59.1466 47.1124 61.3316 45.5373 63.7257 44.3415L64.6239 43.8894C64.9841 43.9324 65.3463 43.955 65.7091 43.9572C68.1992 43.9599 70.5871 42.9668 72.341 41.1992L73.3601 40.1801C75.911 37.6273 76.5429 33.7291 74.9291 30.5012C74.7171 30.0775 74.2018 29.9059 73.7781 30.1179C73.6963 30.1589 73.6214 30.2127 73.5566 30.2773L69.3103 34.5236C68.3065 35.5298 66.677 35.5319 65.6708 34.5282C65.1869 34.0455 64.9148 33.3901 64.9147 32.7067C64.9133 32.0239 65.1848 31.3689 65.6688 30.8872L69.915 26.6409C70.2497 26.3056 70.2492 25.7624 69.9138 25.4277C69.8491 25.3631 69.7745 25.3093 69.6929 25.2683C66.4674 23.6479 62.5665 24.2783 60.0156 26.8322L58.9965 27.8513C57.2215 29.6172 56.2268 32.0198 56.2342 34.5236C56.2361 34.8726 56.2587 35.2212 56.302 35.5675L55.8568 36.4648C54.659 38.8591 53.082 41.0439 51.1867 42.9347L48.9967 45.1247L47.6842 43.8131L50.1101 41.3845C50.4445 41.0497 50.4445 40.5073 50.1101 40.1724L48.9349 38.9972C48.7771 38.8392 48.5638 38.749 48.3404 38.7458L46.5192 38.721L46.2207 37.6564C46.1804 37.5148 46.1048 37.3859 46.0011 37.2815L34.482 25.7582C32.1352 23.4129 28.3317 23.4143 25.9864 25.7612C23.6412 28.108 23.6426 31.9115 25.9894 34.2568L37.4587 45.7261C37.5599 45.827 37.6846 45.9009 37.8216 45.9414L38.9617 46.2802L39.026 48.1675C39.0336 48.3848 39.1234 48.5911 39.2774 48.7448L40.4097 49.8771C40.7447 50.212 41.2877 50.212 41.6227 49.8771L44.0435 47.4546L45.3534 48.7645L42.7413 51.3758C40.8535 53.2726 38.6684 54.848 36.2724 56.0398L35.3819 56.4928C35.0347 56.449 34.6852 56.4261 34.3354 56.4241C31.8314 56.4165 29.4286 57.4109 27.6622 59.1855L26.6431 60.2046C24.0873 62.7539 23.4554 66.6554 25.0758 69.881C25.2885 70.3044 25.804 70.4752 26.2275 70.2626C26.3092 70.2215 26.3837 70.1678 26.4484 70.1032L30.6947 65.8578C31.6914 64.8445 33.3207 64.8311 34.3341 65.8278C35.3474 66.8245 35.3608 68.4538 34.3641 69.4671C34.3543 69.4771 34.3445 69.487 34.3345 69.4967L30.0882 73.743C29.7539 74.0787 29.7549 74.6219 30.0906 74.9562C30.1554 75.0208 30.2302 75.0746 30.3121 75.1156C33.5386 76.7278 37.4347 76.0963 39.9868 73.5474L41.0059 72.5283C43.0388 70.5087 44.0301 67.6665 43.6944 64.8207L44.1533 63.9096C45.3466 61.5161 46.9203 59.332 48.8131 57.4424L51.4235 54.832L66.0505 69.4556C66.0402 69.6013 66.0676 69.7473 66.1303 69.8793L67.3372 72.3062C67.4042 72.4394 67.5047 72.553 67.6289 72.6356L71.2687 75.0624C71.6089 75.2889 72.0615 75.2439 72.3505 74.9552L74.7773 72.5283C75.0666 72.2398 75.1122 71.7871 74.8862 71.4466L72.4594 67.8068ZM60.2095 29.0643L61.2286 28.0452C62.9401 26.3307 65.4479 25.6811 67.7765 26.3492L64.4558 29.6708C62.7734 31.3384 62.7614 34.0542 64.4292 35.7365C66.0968 37.4189 68.8126 37.4309 70.4949 35.7631C70.5038 35.7543 70.5127 35.7454 70.5215 35.7365L73.8414 32.4167C74.5053 34.7448 73.8571 37.25 72.1471 38.9637L71.128 39.9828C69.4169 41.7068 66.9882 42.5148 64.5853 42.16H64.5664C64.1676 42.1031 63.7738 42.0154 63.3886 41.8975L63.3363 41.8812C62.9616 41.7634 62.5966 41.6171 62.2443 41.4437L62.1928 41.418C61.8339 41.2383 61.4897 41.0306 61.1634 40.7969C60.8258 40.553 60.5083 40.2824 60.2138 39.988C59.0273 38.8058 58.2621 37.2665 58.0357 35.607C57.9816 35.2501 57.9543 34.8896 57.9542 34.5287C57.9455 32.479 58.7577 30.5111 60.2095 29.0643ZM52.3988 44.1485C54.1925 42.3608 55.7199 40.3247 56.9342 38.1025C56.972 38.1951 57.02 38.2826 57.0612 38.3735C57.1273 38.5237 57.1942 38.6738 57.2688 38.8196C57.3314 38.9414 57.3992 39.0607 57.467 39.1799C57.5347 39.2991 57.6111 39.4304 57.6891 39.5531C57.7672 39.6757 57.8418 39.7907 57.9233 39.9073C58.0048 40.024 58.0949 40.1381 58.1807 40.2505C58.2665 40.3629 58.3522 40.4769 58.444 40.5868C58.5358 40.6966 58.6559 40.8235 58.7649 40.9402C58.8438 41.026 58.915 41.1117 58.9973 41.1975C59.0625 41.2619 59.1329 41.3176 59.1989 41.3794C59.3413 41.5132 59.4837 41.6462 59.633 41.7706C59.7102 41.8349 59.7908 41.8941 59.8698 41.9567C60.0259 42.0785 60.1837 42.1961 60.3467 42.3076C60.4231 42.3599 60.5011 42.4114 60.5792 42.4611C60.7576 42.5755 60.94 42.6838 61.1265 42.7862C61.1926 42.8223 61.2577 42.86 61.3247 42.8952C61.57 43.0222 61.8196 43.1405 62.0761 43.2452L62.1001 43.2563C59.8756 44.4704 57.8364 45.9968 56.0447 47.7892L53.852 49.9801L50.7964 46.9253L50.2096 46.3377L52.3988 44.1485ZM41.0188 48.0619L40.7323 47.7754L40.6585 45.6051C40.646 45.2362 40.399 44.9166 40.0451 44.8116L38.5207 44.3587L27.2067 33.0498C25.5301 31.3743 25.5291 28.6568 27.2046 26.9802C28.88 25.3035 31.5976 25.3026 33.2742 26.978L44.6286 38.3358L45.0395 39.8018C45.1424 40.1676 45.4736 40.422 45.8535 40.4272L47.9673 40.4564L48.2907 40.7798L41.0188 48.0619ZM39.7938 71.3171L38.7712 72.3388C37.0581 74.0493 34.5527 74.6974 32.2251 74.0321L35.5449 70.7123C37.1995 69.017 37.1664 66.3015 35.4711 64.6469C33.8061 63.022 31.1491 63.0206 29.4826 64.6439L26.161 67.9638C25.4916 65.6353 26.1409 63.1271 27.8561 61.4159L28.8752 60.3968C31.8942 57.3911 36.7748 57.3911 39.7938 60.3968C40.9726 61.5819 41.7361 63.1167 41.9701 64.7718V64.7769C42.3261 67.179 41.518 69.6072 39.7938 71.3171ZM47.6001 56.2311C45.8072 58.021 44.2807 60.0592 43.0673 62.2832C43.0553 62.2523 43.039 62.224 43.0261 62.1974C42.9317 61.9715 42.8288 61.7501 42.7173 61.5334C42.6701 61.4425 42.6195 61.3541 42.5689 61.2641C42.4831 61.1071 42.3905 60.9518 42.2935 60.8C42.2292 60.6988 42.164 60.6001 42.0962 60.5014C42.001 60.3642 41.9006 60.2304 41.7977 60.0983C41.7231 60.0005 41.6493 59.9018 41.5695 59.8066C41.4477 59.6616 41.3173 59.5218 41.186 59.3828C41.1243 59.3185 41.0702 59.249 41.0068 59.1855C40.9433 59.122 40.8652 59.0594 40.7957 58.9942C40.6628 58.869 40.5298 58.7437 40.3908 58.6271C40.2887 58.5413 40.1824 58.4624 40.0769 58.3809C39.955 58.2874 39.8324 58.1947 39.7071 58.1072C39.5965 58.0309 39.485 57.9571 39.3709 57.885C39.2405 57.7993 39.1075 57.7246 38.9737 57.6491C38.8613 57.5857 38.7498 57.5213 38.6348 57.463C38.4761 57.3815 38.3131 57.3086 38.1493 57.2365C38.0678 57.2005 37.9897 57.1576 37.9074 57.1233C40.1326 55.9134 42.1706 54.3871 43.9577 52.5922L46.5681 49.9818L50.2105 53.6242L47.6001 56.2311ZM67.0962 68.0796L45.2599 46.2433L46.4746 45.0286L68.3109 66.8649L67.0962 68.0796ZM71.6367 73.2446L68.7724 71.3351L67.9377 69.6657L69.4896 68.1139L71.1589 68.9486L73.0685 71.8129L71.6367 73.2446Z" fill="#0F75BC"/>
</g>
<defs>
<clipPath id="clip0">
<rect width="52" height="52" fill="white" transform="translate(24 24)"/>
</clipPath>
</defs>
</svg>

<svg xmlns="http://www.w3.org/2000/svg" xmlns:xlink="http://www.w3.org/1999/xlink" width="100" height="100" viewBox="0 0 100 100"><defs><clipPath id="a"><rect width="52" height="52" transform="translate(24 24)" fill="#fff"/></clipPath></defs><g transform="translate(-715 -352)"><circle cx="50" cy="50" r="50" transform="translate(715 352)" fill="#ecf6fd"/><g transform="translate(715 352)" clip-path="url(#a)"><path d="M72.459,67.807a.858.858,0,0,0-.329-.292l-1.8-.9a.836.836,0,0,0-.2-.358L55.065,51.193l2.19-2.187a24.832,24.832,0,0,1,6.471-4.664l.9-.452a9.647,9.647,0,0,0,1.085.068A9.329,9.329,0,0,0,72.341,41.2L73.36,40.18A8.387,8.387,0,0,0,74.929,30.5a.858.858,0,0,0-1.372-.224L69.31,34.524a2.573,2.573,0,1,1-3.642-3.636l4.246-4.246a.858.858,0,0,0-.222-1.373,8.368,8.368,0,0,0-9.677,1.564L59,27.851a9.373,9.373,0,0,0-2.762,6.672,8.8,8.8,0,0,0,.068,1.044l-.445.9a24.832,24.832,0,0,1-4.67,6.47L49,45.125l-1.312-1.312,2.426-2.429a.858.858,0,0,0,0-1.212L48.935,39a.858.858,0,0,0-.594-.251l-1.821-.025-.3-1.065a.87.87,0,0,0-.22-.375L34.482,25.758a6.007,6.007,0,0,0-8.493,8.5L37.459,45.726a.858.858,0,0,0,.363.215l1.14.339.064,1.887a.858.858,0,0,0,.251.577l1.132,1.132a.858.858,0,0,0,1.213,0l2.421-2.423,1.31,1.31-2.612,2.611a24.557,24.557,0,0,1-6.469,4.664l-.89.453a8.763,8.763,0,0,0-1.047-.069,9.375,9.375,0,0,0-6.673,2.761L26.643,60.2a8.364,8.364,0,0,0-1.567,9.676.858.858,0,0,0,1.373.222l4.246-4.245a2.573,2.573,0,1,1,3.669,3.609l-.03.03-4.246,4.246a.858.858,0,0,0,.224,1.373,8.386,8.386,0,0,0,9.675-1.568l1.019-1.019a9.325,9.325,0,0,0,2.688-7.708l.459-.911a24.729,24.729,0,0,1,4.66-6.467l2.61-2.61L66.05,69.456a.848.848,0,0,0,.08.424l1.207,2.427a.859.859,0,0,0,.292.329l3.64,2.427a.858.858,0,0,0,1.082-.107l2.427-2.427a.858.858,0,0,0,.109-1.082ZM60.209,29.064l1.019-1.019a6.658,6.658,0,0,1,6.548-1.7l-3.321,3.322a4.289,4.289,0,1,0,6.039,6.092l.027-.027,3.32-3.32a6.677,6.677,0,0,1-1.694,6.547l-1.019,1.019a7.645,7.645,0,0,1-6.543,2.177h-.019a7.778,7.778,0,0,1-1.178-.263l-.052-.016a7.706,7.706,0,0,1-1.092-.437l-.052-.026a7.65,7.65,0,0,1-1.029-.621,7.825,7.825,0,0,1-.95-.809,7.643,7.643,0,0,1-2.178-4.381,7.209,7.209,0,0,1-.082-1.078A7.669,7.669,0,0,1,60.209,29.064ZM52.4,44.148A26.428,26.428,0,0,0,56.934,38.1c.038.093.086.18.127.271.066.15.133.3.208.446.063.122.13.241.2.36s.144.25.222.373.153.238.234.354.172.231.257.343.172.226.263.336.212.237.321.353c.079.086.15.171.232.257.065.064.136.12.2.182.142.134.285.267.434.391.077.064.158.124.237.186.156.122.314.239.477.351.076.052.154.1.233.154q.268.172.547.325c.066.036.131.074.2.109.245.127.495.245.751.35l.024.011a26.539,26.539,0,0,0-6.055,4.533L53.852,49.98,50.8,46.925l-.587-.588Zm-11.38,3.913-.286-.287-.074-2.17a.858.858,0,0,0-.613-.793l-1.524-.453L27.207,33.05a4.292,4.292,0,0,1,6.068-6.072L44.629,38.336,45.04,39.8a.858.858,0,0,0,.814.625l2.114.029.323.323ZM39.794,71.317l-1.023,1.022a6.67,6.67,0,0,1-6.546,1.693l3.32-3.32a4.289,4.289,0,0,0-6.062-6.068l-3.322,3.32a6.653,6.653,0,0,1,1.7-6.548L28.875,60.4A7.71,7.71,0,0,1,41.97,64.772v.005A7.635,7.635,0,0,1,39.794,71.317ZM47.6,56.231a26.457,26.457,0,0,0-4.533,6.052c-.012-.031-.028-.059-.041-.086q-.142-.339-.309-.664c-.047-.091-.1-.179-.148-.269-.086-.157-.178-.312-.275-.464-.064-.1-.129-.2-.2-.3-.1-.137-.2-.271-.3-.4-.075-.1-.148-.2-.228-.292-.122-.145-.252-.285-.383-.424-.062-.064-.116-.134-.179-.2s-.142-.126-.211-.191c-.133-.125-.266-.251-.4-.367-.1-.086-.208-.165-.314-.246-.122-.094-.244-.186-.37-.274s-.222-.15-.336-.222c-.13-.086-.263-.16-.4-.236-.112-.063-.224-.128-.339-.186-.159-.082-.322-.154-.486-.227-.082-.036-.16-.079-.242-.113a26.2,26.2,0,0,0,6.05-4.531l2.61-2.61,3.642,3.642ZM67.1,68.08,45.26,46.243l1.215-1.215L68.311,66.865Zm4.541,5.165-2.864-1.91-.835-1.669,1.552-1.552,1.669.835,1.91,2.864Z" fill="#0f75bc"/></g></g></svg>
